svg/chatpad-ai.svg

<svg xmlns="http://www.w3.org/2000/svg" width="256" height="256" fill="none" viewBox="0 0 256 256"><rect width="256" height="256" fill="url(#paint0_linear_849_30832)"/><path fill="url(#paint1_linear_849_30832)" fill-rule="evenodd" d="M210.108 83.479C210.108 78.5413 209.135 73.652 207.246 69.0902C205.356 64.5284 202.587 60.3835 199.095 56.8921C195.604 53.4006 191.459 50.631 186.897 48.7415C182.335 46.8519 177.446 45.8794 172.508 45.8794H83.4945C78.5557 45.8775 73.6649 46.8487 69.1014 48.7375C64.538 50.6262 60.3914 53.3954 56.8985 56.8871C53.4056 60.3787 50.6347 64.5243 48.7443 69.087C46.8539 73.6497 45.8809 78.5401 45.8809 83.479V172.521C45.8809 177.459 46.8534 182.348 48.743 186.91C50.6325 191.471 53.4021 195.616 56.8935 199.108C63.9448 206.159 73.5084 210.12 83.4804 210.12H177.465C181.754 210.122 186.002 209.279 189.965 207.638C193.928 205.998 197.528 203.592 200.561 200.56C203.594 197.527 205.999 193.926 207.64 189.963C209.28 186 210.124 181.753 210.122 177.464V83.479H210.108ZM95.3377 144.821V61.7078H83.4804C77.7064 61.7078 72.1688 64.0016 68.0859 68.0844C64.003 72.1673 61.7093 77.7049 61.7093 83.479V144.821H95.3517H95.3377ZM61.7234 160.65H144.837V194.292H83.4804C77.7064 194.292 72.1688 191.998 68.0859 187.915C64.003 183.833 61.7093 178.295 61.7093 172.521V160.65H61.7234ZM194.294 95.3503H111.166V61.7078H172.522C184.535 61.7078 194.279 71.4527 194.279 83.479V95.3503H194.294ZM160.665 194.278V111.179H194.294V177.464C194.294 186.758 186.774 194.292 177.479 194.292H160.651L160.665 194.278Z" clip-rule="evenodd"/><defs><linearGradient id="paint0_linear_849_30832" x1="128" x2="128" y1="0" y2="256" gradientUnits="userSpaceOnUse"><stop stop-color="#36D687"/><stop offset="1" stop-color="#24B177"/></linearGradient><linearGradient id="paint1_linear_849_30832" x1="128.001" x2="128.001" y1="45.879" y2="210.12" gradientUnits="userSpaceOnUse"><stop stop-color="#EAFDEF"/><stop offset="1" stop-color="#97EEAF"/></linearGradient></defs></svg>

<svg xmlns="http://www.w3.org/2000/svg" width="256" height="256" fill="none"><path fill="url(#a)" d="M0 0h256v256H0z"/><path fill="url(#b)" fill-rule="evenodd" d="M210.108 83.479a37.6 37.6 0 0 0-11.013-26.587 37.6 37.6 0 0 0-26.587-11.013H83.494a37.6 37.6 0 0 0-37.613 37.6v89.042a37.6 37.6 0 0 0 37.6 37.599h93.984a32.63 32.63 0 0 0 23.096-9.56 32.65 32.65 0 0 0 9.561-23.096V83.479zm-114.77 61.342V61.708H83.48a21.77 21.77 0 0 0-21.77 21.771v61.342h33.642zM61.723 160.65h83.114v33.642H83.48a21.77 21.77 0 0 1-21.77-21.771V160.65zm132.571-65.3h-83.128V61.708h61.356c12.013 0 21.757 9.745 21.757 21.771V95.35zm-33.629 98.928v-83.099h33.629v66.285c0 9.294-7.52 16.828-16.815 16.828h-16.828z" clip-rule="evenodd"/><defs><linearGradient id="a" x1="128" x2="128" y1="0" y2="256" gradientUnits="userSpaceOnUse"><stop stop-color="#36D687"/><stop offset="1" stop-color="#24B177"/></linearGradient><linearGradient id="b" x1="128.001" x2="128.001" y1="45.879" y2="210.12" gradientUnits="userSpaceOnUse"><stop stop-color="#EAFDEF"/><stop offset="1" stop-color="#97EEAF"/></linearGradient></defs></svg>
